svgs/magical_search.svg

<svg xmlns="http://www.w3.org/2000/svg" width="192" height="192" fill="none"><path stroke="#000" stroke-linecap="round" stroke-linejoin="round" stroke-width="12" d="M111.463 121.245C119.943 116.039 125.6 106.68 125.6 96c0-16.348-13.252-29.6-29.6-29.6S66.4 79.652 66.4 96s13.252 29.6 29.6 29.6a29.46 29.46 0 0 0 14.69-3.897m.773-.458q-.383.235-.773.458m.773-.458q-.39.224-.773.458m.773-.458c4.628-2.651 10.035-4.087 15.731-4.36 13.595-.651 25.729 6.65 31.896 17.808m-32.653 28.778q.244-.114.487-.223m-.487.223.487-.223m-.487.223C117.153 167.665 106.849 170 96 170c-40.87 0-74-33.131-74-74s33.13-74 74-74 74 33.13 74 74c0 14.184-3.99 27.435-10.91 38.693m-32.166 28.555c3.82-1.692 7.786-2.272 12.25-2.486a34.38 34.38 0 0 1 20.739 5.712 34.4 34.4 0 0 0 3.427-16.747 34.4 34.4 0 0 0-4.25-15.034"/></svg>

<svg width="192" height="192" viewBox="0 0 192 192" fill="none" xmlns="http://www.w3.org/2000/svg">
<path d="M111.463 121.245C119.943 116.039 125.6 106.68 125.6 96C125.6 79.6524 112.348 66.4 96 66.4C79.6524 66.4 66.4 79.6524 66.4 96C66.4 112.348 79.6524 125.6 96 125.6C101.346 125.6 106.361 124.183 110.69 121.703M111.463 121.245C111.208 121.402 110.95 121.554 110.69 121.703M111.463 121.245C111.203 121.394 110.945 121.547 110.69 121.703M111.463 121.245C116.091 118.594 121.498 117.158 127.194 116.885C140.789 116.234 152.923 123.535 159.09 134.693M126.437 163.471C126.599 163.395 126.762 163.32 126.924 163.248M126.437 163.471C126.6 163.397 126.762 163.323 126.924 163.248M126.437 163.471C117.153 167.665 106.849 170 96 170C55.1309 170 22 136.869 22 96C22 55.1309 55.1309 22 96 22C136.869 22 170 55.1309 170 96C170 110.184 166.01 123.435 159.09 134.693M126.924 163.248C130.744 161.556 134.71 160.976 139.174 160.762C146.815 160.396 153.995 162.542 159.913 166.474C162.368 161.433 163.627 155.722 163.34 149.727C163.079 144.271 161.565 139.171 159.09 134.693" stroke="black" stroke-width="12" stroke-linecap="round" stroke-linejoin="round"/>
</svg>
